X:11
T:Au revoir Laurence et Robin
C:Francine Boisvert
R:slide
M:12/8
L:1/8
K:Amin
A2B c2B ABA AEA | A2B c2A GBc dBG | A2B c2B ABA AEA | c2e dBG AcB cAG |
A2B c2B ABA AEA | A2B c2A GBc dBG | A2B c2B ABA AEA  c2e dBG cBc A3 ||
c2e g3e fdf edc | Acc Gcc gec dBG | c2d e2e fdf edc | afa gec dBG A2B |
c2e g3e fdf edc | Acc Gcc gec dBG | A2A B2B c2e a3 | gec dBG AcB A3 |]
